X:1
T:Title
%%score { ( 1 3 ) | ( 2 4 ) }
L:1/8
M:2/4
K:C
V:1 treble nm="Grand Piano"
V:3 treble 
V:2 bass 
V:4 bass 
V:1
 z2[Q:1/4=92] [EG]>[DF]- | [DF]/EE/- E/E[DF]/- | [DF]/[EG][Ec]/- [Ec]/[Ec][GB]/- | %3
 [GB]/[FA][Ac]/- [Ac]/[GB][FA]/- |[M:1/4] [FA]<[EG]- | [EG]/[EG][EG]/- |[M:2/4] [EG]/AA/- A/FA/- | %7
 A/[EG][CE]/- [CE]/[EG][Ec]/- | [Ec]/[DB][GB]/- [GB]/[Ac][^FA]/- |[M:1/4] [FA]<G- | G/GF/- | %11
[M:2/4] F/EE/- E/E[DF]/- | [DF]/[EG][Ec]/- [Ec]/[Ec][GB]/- | [GB]/[FA][Ac]/- [Ac]/[GB][FA]/- | %14
[M:1/4] [FA]<[EG]- | [EG]/[Ec][Fd]/- |[M:2/4] [Fd]/[Ge][Ec]/- [Ec]/[Fc][FA]/- | %17
[M:9/16] [FA]/[EG][Ec]3/2[Ec][Gc]/- |[M:2/4] [Gc]/dd/- d/c[DB]/- | [DB]<[Ec]- [Ec]3/2 z/ | z4 | %21
 z4 | z4 | z4 | z4 | z4 | z/ G3/2- G2- | G4- | G2 z2 | z4 | z4 | z4 | z4 | z4 | z/ c3/2- c2- | %35
[M:1/4] c2- | c/ z/ z |] %37
V:2
 z2 [C,G,]>[C,G,]- | [C,G,]/[C,G,C][C,G,C]/- [C,G,C]/[C,G,C][C,G,]/- | %2
 [C,G,]/[C,C][C,G,]/- [C,G,]/[C,G,][C,C]/- | [C,C]/[F,C][F,C]/- [F,C]/[F,C][F,C]/- | %4
[M:1/4] [F,C]<[C,C]- | [C,C]/[C,C][C,C]/- |[M:2/4] [C,C]/[F,CF][F,CF]/- [F,CF]/[F,A,C][F,CF]/- | %7
 [F,CF]/[C,C][C,G,]/- [C,G,]/[C,G,][C,G,]/- | [C,G,]/[D,G,][D,D]/- [D,D]/[D,D][D,D]/- | %9
[M:1/4] [D,D]<[G,B,]- | [G,B,]/[G,E][G,D]/- | %11
[M:2/4] [G,D]/[C,G,C][C,G,C]/- [C,G,C]/[C,G,C][C,G,]/- | %12
 [C,G,]/[C,C][C,G,]/- [C,G,]/[C,G,][C,C]/- | [C,C]/[F,C][F,C]/- [F,C]/[F,C][F,C]/- | %14
[M:1/4] [F,C]<[C,C]- | [C,C]/[C,G,][C,G,]/- |[M:2/4] [C,G,]/[C,C][C,G,]/- [C,G,]/[F,A,][F,C]/- | %17
[M:9/16] [F,C]/[C,C][C,G,]3/2[C,G,][E,C]/- |[M:2/4] [E,C]/[F,A,F][F,A,F]/- [F,A,F]/[G,E][G,,G,]/- | %19
 [G,,G,]<[C,G,]- [C,G,]3/2 z/ | z/ [C,C]3/2- [C,C]>[C,G,]- | [C,G,]/[C,G,][C,G,]/- [C,G,]2- | %22
 [C,G,]<E,- E,>E,- | E,/F,F,/- F,2- | F,<[D,C]- [D,C]>[D,C]- | %25
 [D,C]/[D,A,][D,A,]/- [D,A,]/[D,D][D,C]/- | [D,C]<[G,B,]- [G,B,]/[G,B,][G,C]/- | %27
 [G,C]<[G,D]- [G,D]2- | [G,D]<[C,C]- [C,C]>[C,C]- | [C,C]/[C,C][C,C]/- [C,C]>[C,C]- | %30
 [C,C]<[C,G,]- [C,G,]>[E,C]- | [E,C]/[F,C][F,C]/- [F,C]2- | [F,C]<[F,A,]- [F,A,]>[E,A,]- | %33
 [E,A,]/[D,A,][F,A,F]/- [F,A,F]/[G,E][G,,G,]/- | [G,,G,]<C,- C,/-[C,-A,][C,A,]/- | %35
[M:1/4] [C,-A,]<[C,G,]- | [C,G,]/ z/ z |] %37
V:3
 x4 | x4 | x4 | x4 |[M:1/4] x2 | x2 |[M:2/4] x4 | x4 | x4 |[M:1/4] x2 | x2 |[M:2/4] x4 | x4 | x4 | %14
[M:1/4] x2 | x2 |[M:2/4] x4 |[M:9/16] x9/2 |[M:2/4] x4 | x4 | z/ [Ge]3/2- [Ge]>[Fd]- | %21
 [Fd]/[Fd][Ec]/- [Ec]2- | [Ec]<[CGc]- [CGc]>[D^GB]- | [DGB]/[D^GB][CA]/- [CA]2- | %24
 [CA]<[Fd]- [Fd]>[Fe]- | [Fe]/[^Fd][Fc]/- [Fc]/[FB][FA]/- | [FA]2 z/ DE/- | E<F- F2- | %28
 F<[EG]- [EG]>[_E^F]- | [EF]/[=FA][=EG]/- [EG]>[EG]- | [EG]<[Ec]- [Ec]>[GB]- | %31
 [GB]/[GB][FA]/- [FA]2- | [FA]<[Fd]- [Fd]>[Ge]- | [Ge]/[Af]d/- d/c[DB]/- | [DB]<E- E/FF/- | %35
[M:1/4] F<E- | E/ z/ z |] %37
V:4
 x4 | x4 | x4 | x4 |[M:1/4] x2 | x2 |[M:2/4] x4 | x4 | x4 |[M:1/4] x2 | x2 |[M:2/4] x4 | x4 | x4 | %14
[M:1/4] x2 | x2 |[M:2/4] x4 |[M:9/16] x9/2 |[M:2/4] x4 | x4 | x4 | x4 | x4 | x4 | x4 | x4 | x4 | %27
 x4 | x4 | x4 | x4 | x4 | x4 | x4 | z/ G,3/2- G,/ z/ z |[M:1/4] x2 | x2 |] %37

